src/npmap-builder/vehicle-ferry-white-12.svg

<svg id="Layer_1" data-name="Layer 1" xmlns="http://www.w3.org/2000/svg" width="12" height="12" viewBox="0 0 12 12">
  <title>a</title>
  <path d="M5,2H4L3,3.05v2H4v-1H5v1H6V3Z" style="fill: #fff"/>
  <path d="M9,2H8L7,3V5H8V4H9V5h1V3Z" style="fill: #fff"/>
  <path d="M2,5L3,7A3.53,3.53,0,0,1,4.5,6C5,6,5.9,7,6.5,7s1.42-1,2-1A3.29,3.29,0,0,1,10,7l1-2H2Z" style="fill: #fff"/>
  <path d="M6.5,8c0.58,0,1.42-1,2-1a3.4,3.4,0,0,1,1.5.8V9A3.4,3.4,0,0,0,8.5,8c-0.56,0-1.4,1-2,1S5,8,4.5,8A3.53,3.53,0,0,0,3,9.05V7.85A3.24,3.24,0,0,1,4.5,7C5.1,7,5.92,8,6.5,8Z" style="fill: #fff"/>
</svg>

<?xml version="1.0" encoding="utf-8"?>
<!-- Generator: Adobe Illustrator 21.1.0, SVG Export Plug-In . SVG Version: 6.00 Build 0)  -->
<svg version="1.1" id="Layer_1" xmlns="http://www.w3.org/2000/svg" xmlns:xlink="http://www.w3.org/1999/xlink" x="0px" y="0px"
	 width="12px" height="12px" viewBox="0 0 12 12" enable-background="new 0 0 12 12" xml:space="preserve">
<path fill="#FFFFFF" d="M5,2H4L3,3.1V5h1V4h1v1h1V3L5,2z"/>
<path fill="#FFFFFF" d="M9,2H8L7,3l0,2h1V4h1v1h1V3L9,2z"/>
<path fill="#FFFFFF" d="M2,5l1,2c0,0,1-1,1.5-1s1.4,1,2,1s1.4-1,2-1S10,7,10,7l1-2H2z"/>
<path fill="#FFFFFF" d="M6.5,8c0.6,0,1.4-1,2-1S10,7.8,10,7.8V9c0,0-0.9-1-1.5-1s-1.4,1-2,1S5,8,4.5,8S3,9,3,9V7.9
	C3,7.9,3.9,7,4.5,7S5.9,8,6.5,8z"/>
</svg>
